**kern	**kern
*staff2	*staff1
*clefF4	*clefG2
*k[f#c#g#]	*k[f#c#g#]
*M2/4	*M2/4
*A:	*A:
=-	=-
8r	8e
=73||	=73||
24AALL	(8cc#L
24C#	.
24D	.
24E	8eJ
24F#	.
24G#JJ	.
8A	8cc#L
8r	8eJ
=74	=74
2r	8dL 8b
.	8eJ
.	8c#L 8a
.	8eJ)
=75	=75
24AALL	(8cc#L 8ee
24C#	.
24D	.
24E	8eJ
24F#	.
24G#JJ	.
8A	8cc#L 8ee
8r	8eJ
=76	=76
2r	8bL 8dd
.	8eJ
.	8aL 8cc#
.	8eJ)
=77	=77
24DLL	(8g#L 8b
24C#	.
24D	.
24E	8eJ
24D	.
24BBJJ	.
8C#	8aL
8r	8eJ
=78	=78
24DLL	8g#L 8b
24C#	.
24D	.
24E	8eJ
24D	.
24BBJJ	.
8C#	8aL
8r	8eJ)
=79	=79
[4BB	(8g#L 8ee
.	8eJ
24BBLL]	8aL 8dd#
24C#	.
24BB	.
24AA	8f#J
24GG#	.
24FF#JJ	.
=80	=80
8EE	8g#L) 8ee
=	=
*-	*-
